packages/assets/static/images/icons/slack-logo.svg

<svg width="24" height="24" viewBox="0 0 24 24" xmlns="http://www.w3.org/2000/svg">
<path d="M21.625 9.74998C21.625 9.21005 21.4954 8.67801 21.2472 8.19852C20.999 7.71904 20.6393 7.3061 20.1985 6.99438C19.7576 6.68266 19.2484 6.48126 18.7136 6.40708C18.1788 6.33291 17.634 6.38813 17.125 6.5681V5.24998C17.1244 4.59872 16.9354 3.96155 16.5808 3.4153C16.2261 2.86906 15.721 2.43709 15.1264 2.17149C14.5318 1.90588 13.873 1.818 13.2295 1.91842C12.5861 2.01885 11.9854 2.30331 11.5 2.73748C10.9415 2.23867 10.233 1.93974 9.48603 1.88775C8.73904 1.83577 7.99598 2.03367 7.3738 2.45032C6.75162 2.86696 6.28567 3.47869 6.04929 4.18919C5.81291 4.8997 5.81953 5.66864 6.0681 6.37498H4.74998C4.09872 6.37557 3.46155 6.56458 2.9153 6.9192C2.36906 7.27382 1.93709 7.77891 1.67149 8.37354C1.40588 8.96818 1.318 9.62696 1.41842 10.2704C1.51885 10.9139 1.80331 11.5146 2.23748 12C1.73867 12.5584 1.43974 13.2669 1.38775 14.0139C1.33577 14.7609 1.53367 15.504 1.95032 16.1262C2.36696 16.7483 2.97869 17.2143 3.68919 17.4507C4.3997 17.687 5.16864 17.6804 5.87498 17.4319V18.75C5.87557 19.4012 6.06458 20.0384 6.4192 20.5847C6.77382 21.1309 7.27891 21.5629 7.87354 21.8285C8.46818 22.0941 9.12696 22.182 9.77043 22.0815C10.4139 21.9811 11.0146 21.6967 11.5 21.2625C12.0584 21.7613 12.7669 22.0602 13.5139 22.1122C14.2609 22.1642 15.004 21.9663 15.6262 21.5496C16.2483 21.133 16.7143 20.5213 16.9507 19.8108C17.187 19.1003 17.1804 18.3313 16.9319 17.625H18.25C18.9012 17.6244 19.5384 17.4354 20.0847 17.0808C20.6309 16.7261 21.0629 16.221 21.3285 15.6264C21.5941 15.0318 21.682 14.373 21.5815 13.7295C21.4811 13.0861 21.1967 12.4854 20.7625 12C21.3184 11.3825 21.6257 10.5809 21.625 9.74998ZM18.25 8.62498C18.5483 8.62498 18.8345 8.7435 19.0455 8.95448C19.2565 9.16546 19.375 9.45161 19.375 9.74998C19.375 10.0483 19.2565 10.3345 19.0455 10.5455C18.8345 10.7565 18.5483 10.875 18.25 10.875H17.125V9.74998C17.125 9.45161 17.2435 9.16546 17.4545 8.95448C17.6655 8.7435 17.9516 8.62498 18.25 8.62498ZM13.75 4.12498C14.0483 4.12498 14.3345 4.2435 14.5455 4.45448C14.7565 4.66546 14.875 4.95161 14.875 5.24998V9.74998C14.875 10.0483 14.7565 10.3345 14.5455 10.5455C14.3345 10.7565 14.0483 10.875 13.75 10.875H12.625V5.24998C12.625 4.95161 12.7435 4.66546 12.9545 4.45448C13.1655 4.2435 13.4516 4.12498 13.75 4.12498ZM8.12498 5.24998C8.12498 4.95161 8.2435 4.66546 8.45448 4.45448C8.66546 4.2435 8.95161 4.12498 9.24998 4.12498C9.54835 4.12498 9.8345 4.2435 10.0455 4.45448C10.2565 4.66546 10.375 4.95161 10.375 5.24998V6.37498H9.24998C8.95161 6.37498 8.66546 6.25645 8.45448 6.04547C8.2435 5.8345 8.12498 5.54835 8.12498 5.24998ZM4.74998 8.62498H9.24998C9.54835 8.62498 9.8345 8.7435 10.0455 8.95448C10.2565 9.16546 10.375 9.45161 10.375 9.74998V10.875H4.74998C4.45161 10.875 4.16546 10.7565 3.95448 10.5455C3.7435 10.3345 3.62498 10.0483 3.62498 9.74998C3.62498 9.45161 3.7435 9.16546 3.95448 8.95448C4.16546 8.7435 4.45161 8.62498 4.74998 8.62498ZM4.74998 15.375C4.45161 15.375 4.16546 15.2565 3.95448 15.0455C3.7435 14.8345 3.62498 14.5483 3.62498 14.25C3.62498 13.9516 3.7435 13.6655 3.95448 13.4545C4.16546 13.2435 4.45161 13.125 4.74998 13.125H5.87498V14.25C5.87498 14.5483 5.75645 14.8345 5.54547 15.0455C5.3345 15.2565 5.04835 15.375 4.74998 15.375ZM9.24998 19.875C8.95161 19.875 8.66546 19.7565 8.45448 19.5455C8.2435 19.3345 8.12498 19.0483 8.12498 18.75V14.25C8.12498 13.9516 8.2435 13.6655 8.45448 13.4545C8.66546 13.2435 8.95161 13.125 9.24998 13.125H10.375V18.75C10.375 19.0483 10.2565 19.3345 10.0455 19.5455C9.8345 19.7565 9.54835 19.875 9.24998 19.875ZM14.875 18.75C14.875 19.0483 14.7565 19.3345 14.5455 19.5455C14.3345 19.7565 14.0483 19.875 13.75 19.875C13.4516 19.875 13.1655 19.7565 12.9545 19.5455C12.7435 19.3345 12.625 19.0483 12.625 18.75V17.625H13.75C14.0483 17.625 14.3345 17.7435 14.5455 17.9545C14.7565 18.1655 14.875 18.4516 14.875 18.75ZM18.25 15.375H13.75C13.4516 15.375 13.1655 15.2565 12.9545 15.0455C12.7435 14.8345 12.625 14.5483 12.625 14.25V13.125H18.25C18.5483 13.125 18.8345 13.2435 19.0455 13.4545C19.2565 13.6655 19.375 13.9516 19.375 14.25C19.375 14.5483 19.2565 14.8345 19.0455 15.0455C18.8345 15.2565 18.5483 15.375 18.25 15.375Z"/>
</svg>

<svg viewBox="0 0 24 24" xmlns="http://www.w3.org/2000/svg" aria-hidden="true" fill="currentColor" height="24px" width="24px"><path d="M21.625 9.75a3.375 3.375 0 0 0-4.5-3.182V5.25A3.375 3.375 0 0 0 11.5 2.737a3.375 3.375 0 0 0-5.432 3.638H4.75A3.375 3.375 0 0 0 2.237 12a3.375 3.375 0 0 0 3.638 5.432v1.318a3.375 3.375 0 0 0 5.625 2.512 3.375 3.375 0 0 0 5.432-3.637h1.318A3.376 3.376 0 0 0 20.762 12c.556-.617.864-1.42.863-2.25M18.25 8.625a1.125 1.125 0 0 1 0 2.25h-1.125V9.75a1.125 1.125 0 0 1 1.125-1.125m-4.5-4.5a1.125 1.125 0 0 1 1.125 1.125v4.5a1.125 1.125 0 0 1-1.125 1.125h-1.125V5.25a1.125 1.125 0 0 1 1.125-1.125M8.125 5.25a1.125 1.125 0 1 1 2.25 0v1.125H9.25A1.125 1.125 0 0 1 8.125 5.25M4.75 8.625h4.5a1.125 1.125 0 0 1 1.125 1.125v1.125H4.75a1.125 1.125 0 1 1 0-2.25m0 6.75a1.125 1.125 0 1 1 0-2.25h1.125v1.125a1.125 1.125 0 0 1-1.125 1.125m4.5 4.5a1.125 1.125 0 0 1-1.125-1.125v-4.5a1.125 1.125 0 0 1 1.125-1.125h1.125v5.625a1.125 1.125 0 0 1-1.125 1.125m5.625-1.125a1.125 1.125 0 0 1-2.25 0v-1.125h1.125a1.125 1.125 0 0 1 1.125 1.125m3.375-3.375h-4.5a1.125 1.125 0 0 1-1.125-1.125v-1.125h5.625a1.125 1.125 0 0 1 0 2.25"/></svg>
